X:5
T:Andrew's Jig
R:jig
C:Allie Bennett, S0CAN
O:contempory Cape Breton
D:Allie Bennett, It's About Time
Z:Paul Stewart Cranford (P.S.C.), <http://www.cranfordpub.com>
L:1/8
M:6/8
Q:288
K:D
g|:f2 d A2 G|FAd fga|g2 f e2 d|cBc Ace|
f2 d A2 G|FAd fga|gfe cAe|1d3 deg:|2d3 dAG||
|:F2 G A2 d|fed cBA|B2d A2 d|edc BAG|
F2 G A2 d|fed cBA|Bge cAe|1d3 dAG:|2d3 d2|]
